X: 41395
T: Twenty Dollar
R: waltz
M: 3/4
K: Aminor
"Am"a2 AB c2|"Am"a2 ga "D"^fd|"G"g2 GA B2|"G"d2 cd BG|
"Am"a2 AB c2|"Am"a2 ga "D"^fd|"G"g2 d2 g2|"Em"e2 de ce|
"Am"a2 AB c2|"Am"a2 ga "D"^fd|"G"g2 GA B2|"G"d2 cd BG|
"Am"A2 AB cd|"Em"e2 d2 B2|"Am"ca c2 "Em"B2|"Am"A6|
"Am"e2 AB ce|"G"g2 d2 B2|"Am"c2 AB cA|"Em"B2 E2 B2|
"Am"e2 AB ce|"G"g2 d2 B2|"C"c3 c e2|"E"^g4 g2|
"Am"a3 e c2|"G"g3 d B2|"Am"e2 AB cA|"Em"B2 E2 B2|
"C"c2 cd eg|"Dm"a2 e2 d2|"Am"ce c2 "Em"B2|"Am"A6||

